X: 49051
T: Ann Dix of Harmans Water
C: Ian R Muir
R: strathspey
N: This is version 2, for ABC software that understands voice overlays.
N: Tune for the dance Miss Eleanor
Z: 2015 John Chambers <jc:trillian.mit.edu>
B: RSCDS 49-5
M: C
L: 1/8
K: Bb
F |\
"Bb"B,>D "F7"C/D/E "Bb"D<F "D/Bb"F>B, |\
"Eb"E>G B>G "D/Bb"F2 F>D |\
"Bb"B,>D "A/Dm7"C/D/E "Gm"D<F F>B, & x4 B,2 x2 |\
"Cm7"G,>E D<B, "F7"C2 C>F & x4 A,2 A,2 |
"Bb"B,>D "F7"C/D/E "Bb"D<F "D/Bb"F>B, |\
"Eb"E>G B>G "D7"A2 G>A |\
"Eb"B>A "Edim"(3GAB "F/Bb"G<F "Gm7"D<B, & G2 x2 D2 x2 |\
"Cm7"E>C "F7"A,<C "Bb"B,2 B>c & C2 x6 |]
"Bb"d>D "A/D7"^F<c "Gm"B2 A>B & x4 D2 D2 |\
"C7"c>C =E<B "F"A2 G>A & x2 C2 =F2 x2 |\
"Eb"B>A G/A/B "D/Bb"G<F D>B, |\
"Cm7"G,>E D<B, "F7"C2 B>c & x4 A,2 x2 |
"Bb"d>D "A/D7"^F<c "Gm"B2 A>B & x4 D2 D2 |\
"C7"c>C "E/C7"=E<B "F"A2 G>A & x2 C2 =F2 x2 |\
"Eb"B>A (3GAB "D/Bb"G<F D>B, |\
"Cm7"E>C "F7"A,<C "Bb"B,3 & C2 x2 x3 |]
